X:1
T:Jesu, meine Freude
T:J.S. Bach: Gute Nacht, o Wesen (BWV 227, #9)
T:Johann Sebastian Bach (BWV 227, No. 9)
T:Gute Nacht, o Wesen
T:Public Domain
T:Public Domain
T:Public Domain
T:Public Domain
T:Public Domain
T:Public Domain
C:Johann Sebastian Bach
Z:Public Domain
%%score [ 1 2 3 4 ]
L:1/8
Q:1/4=55
M:2/4
K:C
V:1 treble nm="Soprano" snm="S."
V:2 treble nm="Soprano" snm="S."
V:3 treble nm="Alto" snm="A."
V:4 treble-8 nm="Tenor" snm="T."
V:1
 c3 c | (cB) z2 |!mp! A3 A | (A^G) z2 |!mf! e3 e | (ed) z2 | F3 F | F E (B2- | BAB^c | de f2- | %10
w: Gu- te|Nacht, *|gu- te|Nacht, *|gu- te|Nacht, *|gu- te|Nacht, o We-|||
 fe) (ed) | (^cd) e2 | (ed) z2 | (Bc) d2 | (dc) c2- | c B B2- | B ^G (A2- | A2 ^G2) | A2 e2- | %19
w: * * sen, *|gu- * te|Nacht, *|gu- * te|Nacht * gu-|* te Nacht|* o We-||sen, das|
 e d c B | (A3 B/c/ | B2) E2 | F2 (ED) | E (cd) e | f4- | fd (gf) | (e4- | ef/g/ f/e/d/c/ | d4- | %29
w: * die Welt er-|le- * *|* sen,|gu- te *|Nacht, gu- * te|Nacht,|* * o *|We-|||
 d) f e d | (cB A2- | A3) ^G | A2 e2- | e2 d2 | d2 c2 | B4 z2 | c3 c | (cB) z2 | e3 e | (ed) z2 | %40
w: * sen, mir ge-|fällst * *|* du|nicht, mir|* ge-|fällst du|nicht!|Gu- te|Nacht, *|gu- te|Nacht, *|
 F3 F | F E (B2- | BAB^c | de f2- | fe) (ed) | ^cd e2 | (ed) z2 | (Bc) d2 | (dc) c2- | c B B2- | %50
w: gu- te|Nacht ihr Sün-|||* * den, *|gu- * te|Nacht, *|gu- * te|Nacht, * gu-|* te Nacht|
 B ^G (A2- | A2 ^G2) | A2 e2- | e d c B | (A3 B/c/ | B2) E2 | F2 (ED) | E (cd) e | f4- | f d g f | %60
w: * ihr Sün-||den, blei-|* bet weit da-|hin- * *|* ten,|gu- te *|Nacht, blei- * bet|weit|* da- hin- ten,|
 (e4- | ef/g/ f/e/) d/c/ | (d4- | df) (ed) | c B A2- | A3 ^G | A2 e2 | e2 d2 | (d^c) z2 | e3 e | %70
w: blei|* * * * * bet *|weit|* * da- *|hin- ten, kommt|* nicht|mehr, nicht|mehr ans|Licht, *|Gu- te|
 (ed) z2 | F3 F | (F E3) | z ^G A B | c ^c2 c | d z c2- | c3 B | c (_B A/G/A) | G e f d | %79
w: Nacht, *|gu- te|Nacht *|du Stolz und|Pracht, gu- te|Nacht gu-|* te|Nacht, gu- * * *|Nacht~ du Stolz und|
 e (cd) B | c2 z2 | z4 | z B2 ^c | d A d d | (dc/B/ cB) | B e2 d | c d c B | A ^F ^D3/2 D/ | %88
w: Pracht gu- * te|Nacht!||Dir sei|ganz du Las- ter-|le- * * * *|ben, dir sei|ganz du Las- ter-|le- ben gu- te|
 E e2 ^f | g d g g | (g=f/e/ d/c/B/A/ | e/d/e/f/ e/d/c/d/ | B/A/B/c/ B/A/^G/^F/ | %93
w: Nacht, dir sei|ganz du Las- ter-|le- * * * * * *|||
 E/D/C/D/ E/=G/=F/E/ | D4- | D) C z2 | A3 A | (A^G) z2 | G3 G | (GF) z2 | F3 F | (FE) z2 | d3 e | %103
w: ||* ben,|gu- te|Nacht, *|gu- te|Nacht, *|gu- te|Nacht, *|gu- te|
 c2[Q:1/4=50] z f |[Q:1/4=47] (c2[Q:1/4=40] B2)[Q:1/4=45] | !fermata!A4 |] %106
w: Nacht ge-|ge- *|ben!|
V:2
 A3 A | ((A^G)) z2 |!mp! c3 c | (cB) z2 |!mf! G3 G | (GF) z2 | D3 D | (D4- | D^C) z2 | A3 A | %10
w: Gu- te|Nacht, *|gu- te|Nacht, *|gu- te|Nacht, *|gu- te|Nacht||gu- te|
 (A^G) z2 | =G3 G | (GF) z2 | F3 F | (FE) z2 | D3 E | C2 z f | (c2 B2) | A2 z2 | z4 | z2 e2- | %21
w: Nacht, *|gu- te|Nacht, *|gu- te|Nacht *|gu- te|Nacht, o|We- *|sen,||das-|
 e d c B | A ^G A B | (c4- | cA) (dc) | (B4- | Bc/d/ c/B/A/^G/ | A4- | A) c B A | ^G3 G | A2 A G | %31
w: * die Welt er-|le- sen, das die|Welt|* * er- *|le-|||* sen, mir ge-|fällst du|nicht, mir ge-|
 FE D2 | C2 G2- | G2 F2 | E2 A2 | ^G4 z2 | A3 A | (A^G) z2 | G3 G | (GF) z2 | D3 D | D4- | D^C z2 | %43
w: fällst * du|nicht, mir|* ge-|fällst du|nicht!|Gu- te|Nacht, *|gu- te|Nacht *|gu- te|Nacht,||
 A3 A | (A^G) z2 | G3 G | (GF) z2 | F3 F | (FE) z2 | D3 E | C2 z f | (c2 B2) | A2 z2 | z4 | %54
w: gu- te-|Nacht, *|gu- te|Nacht, *|gu- te|Nacht, *|gu- te|Nacht, ihr|Sün- *|den||
 z2 e2- | e d c B | A ^G A B | c4- | c A d c | (B4- | Bc/d/ c/B/) A/^G/ | (A4- | Ac) (BA) | T^G4 | %64
w: blei-|* bet weit da-|hin- ten, blei- bet|weit|* da- hin- ten,|blei-|* * * * * bet *|weit|* * da- *|hin-|
 A2 A G | (FE) D2 | C2 G2 | G2 F2 | (FE) z2 | G3 G | (GF) z2 | D3 D | D ^G A B | c E ^F ^G | %74
w: ten, kommt nicht|mehr * ans|Licht, nicht|mehr ans|Licht, *|Gu- te|Nacht, *|gu- te|Nacht, du Stolz und|Pracht, du Stolz und|
 A A2 G | A4- | A e A G | E (EF) D | E G A F | G (EF) D | E2 z2 | z E2 ^F | G D G G | (G^F/E/ F^G | %84
w: Pracht, gu- te|Nacht,|* du Stolz und|Pracht, gu- * te|Nacht, du Stolz und|Pracht gu- * te|Nacht!|Dir sei|ganz, du Las- ter-|le- * * * *|
 A e2 ^d | e) B G ^G | A E2 D | C c B A | G (G/^F/) G A | D2 z2 | z F2 ^G | A E A A | %92
w: |* ben, gu- te|Nacht, dir sei|ganz, du Las- ter-|le- ben, * gu- te|Nacht,`|dir sei|ganz, du Las- ter-|
 (A^G/^F/ G/A/B- | BA/^G/ A/B/c- | cd/c/ B/A/B- | B) A B ^c | d e f2- | fe (ed) | ((^cd)) e2 | %99
w: le- * * * * *|||* ben, gu- te|Nacht ge- ge-|* * ben, *|gu- * te|
 (ed) z2 | (Bc) d2 | (dc) c2- | c B B2- | B ^G (A2- | A2 ^G2) | !fermata!A4 |] %106
w: Nacht, *|gu- * te|Nacht, gu- *|* te Nacht|* ge- ge-||ben!|
V:3
"^Canto fermo in Alto" z4 | z4 | z4 | z4 | z4 | z4 | z4 | z4 | E2 E2 | D2 C2 | B,4 | A,4 | z4 | %13
w: ||||||||Gu- te|Nacht, o|We-|sen,||
 z4 | z4 | z4 | z4 | z4 | E2 E2 | ^F2 ^G2 | A4 | ^G4 | z4 | z4 | z4 | z4 | z4 | z4 | z4 | z4 | %30
w: |||||das die|Welt er-|le-|sen,|||||||||
 AB c2 | BA B2 | A4- | A4 | z4 | z4 z2 | z4 | z4 | z4 | z4 | z4 | z4 | E2 E2 | D2 C2 | B,4 | A,4 | %46
w: mir * ge-|fällst * du|nicht!||||||||||Gu- te|Nacht, ihr|Sün-|den,|
 z4 | z4 | z4 | z4 | z4 | z4 | E2 E2 | ^F2 ^G2 | A4 | ^G4 | z4 | z4 | z4 | z4 | z4 | z4 | z4 | z4 | %64
w: ||||||blei- bet|weit da-|hin-|ten,|||||||||
 (AB) c2 | (BA) B2 | A4- | A4 | z4 | z4 | z4 | z4 | z4 | z4 | E2 E2 | F2 E2 | (DC) D2 | C4 | z4 | %79
w: kommt * nicht|mehr * ans|Licht!||||||||Gu- te|Nacht du|Stolz * und|Pracht!||
 z4 | z4 | z4 | z4 | z4 | E2 ^F2 | G2 E2 | A2 G2 | ^F4 | E4 | z4 | z4 | z4 | z4 | z4 | z4 | E2 E2 | %96
w: |||||dir sei|ganz du|Las- ter-|le-|ben,|||||||Gu- te|
 D2 C2 | B,4 | A,4- | A,4 | z4 | z4 | z4 | z4 | z4 | z4 |] %106
w: Nacht ge-|ge-|ben!||||||||
V:4
 A B c d | e E z2 | A B c d | e E z2 | e d ^c A | d D d c | (Bc) (BA) | (^GE^FG | A=G) (=FE) | %9
w: Gu- te Nacht, o|We- sen,|gu- te Nacht, o|We- sen,|gu- te Nacht, o|We- sen, gu- te|Nacht * o *|We- * * *|* * sen, *|
 (FE) (E^D) | E3 E | (AB^cA | d=cBA | GABG | cBAG | ^F) B ^G E | (AB) (cd) | (edeE | A) B c A | %19
w: gu- * te *|Nacht, o|We- * * *||||* sen, gu- te|Nacht * o *|We * * *|* sen, das die|
 (dB) (ed) | (cBcd | e) E e2- | e d c B | (AGFE | DEFD | GFED | Ccde | fedc | BcdB | edcB | %30
w: Welt * er- *|le- * * *|* sen das-|* die Welt er-|le- * * *|||||||
 A) G F E | (DCDE | F) E D ^C | (DE) (FG) | A B c d | e4 z2 | A B c d | e E z2 | e d ^c A | %39
w: * sen, mir ge-|fällst * * *|* du, mir ge-|fällst- * du *|nicht, ge- fällst du|nicht!|Gu- te Nacht, ihr|Sün- den,|gu- te Nacht, ihr|
 d D d c | (Bc) (BA) | (^GE^FG | A=G) (=FE) | (FE) (E^D) | E3 E | (AB^cA | d) c B A | (GA) (BG) | %48
w: Sün- den, gu- te|Nacht, * ihr *|Sün- * * *|* * den, *|gu- * te *|Nacht, ihr|Sün- * * *|* den, gu- te|Nacht, * ihr *|
 (cBAG | ^F) B ^G E | (AB) (cd) | (edeE | A) B c A | dB ed | (cBcd | e) E e2- | e d c B | A G F E | %58
w: Sün- * * *|* den, gu- te|Nacht, * ihr *|Sün- * * *|* den, blei- bet|weit * da- *|hin- * * *|* ten, blei-|* bet weit da-|hin- ten blei- bet|
 (DEFD | GFED | Ccde | fedc | BcdB | edcB | AG) (FE) | DC DE | (FE) (D^C) | (DE) (FG) | A2 z2 | %69
w: weit * * *||||||* * da- *|hin * ten, *|kommt * nicht *|mehr * ans *|Licht!|
 (AB) (^cA) | d D d c | B (cB) A | ^G E e d | c (dc) B | A (GF) E | D F A G | F E F G | A (GA) F | %78
w: Gu- * te *|Nacht, du Stolz und|Pracht, gu- * te|Nacht, du Stolz und|Pracht, gu- * te|Nacht, gu- * te|Nacht, du Stolz und|Pracht, du Stolz und|Pracht, gu- * te|
 C4- | C4- | C e f d | e (cB) A | G =F E A | D (dc) B | A (GA) B | E4- | E4 | z A2 B | c G c c | %89
w: Nacht!||* du Stolz und|Pracht, gu- * te|Nacht, du Stolz und|Pracht, gu- * te|Nacht, gu- * te|Nacht!||Dir sei|ganz, du Las- ter-|
 (cB/A/ B^c | d) A d2- | d c/B/ c d | e E e d | c e c A | (^FEF^G | A) =G =F E | (FE) (E^D) | %97
w: le- * * * *|* ben, gu-|* te * Nacht ge-|ge- ben, dir sei|ganz, du Las- ter-|le- * * *|~ ben, gu- te|Nacht * ge- *|
 E2 E e | (AB) (^cA) | (dcBA | G) A B G | c B A G | ^F B ^G E | (AB) (cd) | (edeE) | !fermata!A4 |] %106
w: ge- ben, du|Las- * ter- *|le- * * *|* ben, dir sei|ganz du Las- ter-|le- ben, gu- te|Nacht * ge- *|ge- * * *|ben!|

